!!!OTL: Frere Jacques
!!!XEN: Are You Sleeping?
!!!COM: unknown
!!!ODT: unknown
!!!YOR: The Folksong Fake Book
!!!YOY: 2000
!!!AST: Children's song
!!!YEC: Brian Luke, 2001
**kern	**harm
*k[b-]	*k[b-]
*M2/4	*M2/4
*F:	*F:
*>A	*>A
=1	=1
4f	I
4g	.
=2	=2
4a	.
4f	.
=3	=3
4f	.
4g	.
=4	=4
4a	.
4f	.
=5	=5
4a	.
4b-	V7
=6	=6
2cc	I
=7	=7
4a	.
4b-	V7
=8	=8
2cc	I;
=9	=9
8cc	.
8dd	.
8cc	.
8b-	.
=10	=10
4a	.
4f	.
=11	=11
8cc	.
8dd	.
8cc	.
8b-	.
=12	=12
4a	.
4f	.
=13	=13
4f	.
4c	V7
=14	=14
2f	I
=15	=15
4f	.
4c	V7
=16	=16
2f	I;
*-	*-
